PortableApps/LibreOfficePortable/App/libreoffice/help/media/icon-themes/cmd/32/wrapideal.svg

<svg viewBox="0 0 32 32" xmlns="http://www.w3.org/2000/svg"><path d="m5 3v26h22v-26z" fill="#fff"/><path d="m12 11c-1.108 0-2 .892-2 2v7c0 1.108.892 2 2 2h8c1.108 0 2-.892 2-2v-7c0-1.108-.892-2-2-2zm0 1h8c.554 0 1 .446 1 1v7c0 .554-.446 1-1 1h-8c-.554 0-1-.446-1-1v-7c0-.554.446-1 1-1z" fill="#eac282"/><path d="m12 12c-.554 0-1 .446-1 1v7c0 .554.446 1 1 1h8c.554 0 1-.446 1-1v-7c0-.554-.446-1-1-1z" fill="#4d82b8"/><path d="m5 2c-.554 0-1 .446-1 1v26c0 .554.446 1 1 1h22c.554 0 1-.446 1-1v-26c0-.554-.446-1-1-1zm0 1h22v26h-22zm1.4453125 4c-.2471217 0-.4453125.1981908-.4453125.4453125v.109375c0 .2471217.1981908.4453125.4453125.4453125h19.1093755c.247121 0 .445312-.1981908.445312-.4453125v-.109375c0-.2471217-.198191-.4453125-.445312-.4453125zm0 3c-.2471217 0-.4453125.198191-.4453125.445312v.109376c0 .247121.1981908.445312.4453125.445312h19.1093755c.247121 0 .445312-.198191.445312-.445312v-.109376c0-.247121-.198191-.445312-.445312-.445312zm0 3c-.2471217 0-.4453125.198191-.4453125.445312v.109376c0 .247121.1981908.445312.4453125.445312h3.109375c.2471217 0 .4453125-.198191.4453125-.445312v-.109376c0-.247121-.1981908-.445312-.4453125-.445312zm15.9999995 0c-.247121 0-.445312.198191-.445312.445312v.109376c0 .247121.198191.445312.445312.445312h3.109376c.247121 0 .445312-.198191.445312-.445312v-.109376c0-.247121-.198191-.445312-.445312-.445312zm-15.9999995 3c-.2471217 0-.4453125.198191-.4453125.445312v.109376c0 .247121.1981908.445312.4453125.445312h3.109375c.2471217 0 .4453125-.198191.4453125-.445312v-.109376c0-.247121-.1981908-.445312-.4453125-.445312zm15.9999995 0c-.247121 0-.445312.198191-.445312.445312v.109376c0 .247121.198191.445312.445312.445312h3.109376c.247121 0 .445312-.198191.445312-.445312v-.109376c0-.247121-.198191-.445312-.445312-.445312zm-16.0351558 3c-.2272031 0-.4101562.182953-.4101562.410156v.179688c0 .227203.1829531.410156.4101562.410156h3.1796876c.2272031 0 .4101562-.182953.4101562-.410156v-.179688c0-.227203-.1829531-.410156-.4101562-.410156zm15.9999998 0c-.227203 0-.410156.182953-.410156.410156v.179688c0 .227203.182953.410156.410156.410156h3.179688c.227203 0 .410156-.182953.410156-.410156v-.179688c0-.227203-.182953-.410156-.410156-.410156zm-16.113281 3c-.1643219 0-.296875.132553-.296875.296875v.40625c0 .164322.1325531.296875.296875.296875h19.40625c.164322 0 .296875-.132553.296875-.296875v-.40625c0-.164322-.132553-.296875-.296875-.296875zm.1484375 3c-.2471217 0-.4453125.198191-.4453125.445312v.109376c0 .247121.1981908.445312.4453125.445312h19.1093755c.247121 0 .445312-.198191.445312-.445312v-.109376c0-.247121-.198191-.445312-.445312-.445312z" fill="#808080"/></svg>

<svg viewBox="0 0 32 32" xmlns="http://www.w3.org/2000/svg">
  <path
     d="M 5 3 L 5 29 L 27 29 L 27 3 L 5 3 z "
     style="fill:#ffffff" />
  <path
     style="fill:#eac282"
     d="M 12 11 C 10.892 11 10 11.892 10 13 L 10 20 C 10 21.108 10.892 22 12 22 L 20 22 C 21.108 22 22 21.108 22 20 L 22 13 C 22 11.892 21.108 11 20 11 L 12 11 z M 12 12 L 20 12 C 20.554 12 21 12.446 21 13 L 21 20 C 21 20.554 20.554 21 20 21 L 12 21 C 11.446 21 11 20.554 11 20 L 11 13 C 11 12.446 11.446 12 12 12 z "
     />
  <path
     d="M 12 12 C 11.446 12 11 12.446 11 13 L 11 20 C 11 20.554 11.446 21 12 21 L 20 21 C 20.554 21 21 20.554 21 20 L 21 13 C 21 12.446 20.554 12 20 12 L 12 12 z "
     style="fill:#4d82b8" />
  <path
     d="M 5 2 C 4.446 2 4 2.446 4 3 L 4 29 C 4 29.554 4.446 30 5 30 L 27 30 C 27.554 30 28 29.554 28 29 L 28 3 C 28 2.446 27.554 2 27 2 L 5 2 z M 5 3 L 27 3 L 27 29 L 5 29 L 5 3 z M 6.4453125 7 C 6.1981908 7 6 7.1981908 6 7.4453125 L 6 7.5546875 C 6 7.8018092 6.1981908 8 6.4453125 8 L 25.554688 8 C 25.801809 8 26 7.8018092 26 7.5546875 L 26 7.4453125 C 26 7.1981908 25.801809 7 25.554688 7 L 6.4453125 7 z M 6.4453125 10 C 6.1981908 10 6 10.198191 6 10.445312 L 6 10.554688 C 6 10.801809 6.1981908 11 6.4453125 11 L 25.554688 11 C 25.801809 11 26 10.801809 26 10.554688 L 26 10.445312 C 26 10.198191 25.801809 10 25.554688 10 L 6.4453125 10 z M 6.4453125 13 C 6.1981908 13 6 13.198191 6 13.445312 L 6 13.554688 C 6 13.801809 6.1981908 14 6.4453125 14 L 9.5546875 14 C 9.8018092 14 10 13.801809 10 13.554688 L 10 13.445312 C 10 13.198191 9.8018092 13 9.5546875 13 L 6.4453125 13 z M 22.445312 13 C 22.198191 13 22 13.198191 22 13.445312 L 22 13.554688 C 22 13.801809 22.198191 14 22.445312 14 L 25.554688 14 C 25.801809 14 26 13.801809 26 13.554688 L 26 13.445312 C 26 13.198191 25.801809 13 25.554688 13 L 22.445312 13 z M 6.4453125 16 C 6.1981908 16 6 16.198191 6 16.445312 L 6 16.554688 C 6 16.801809 6.1981908 17 6.4453125 17 L 9.5546875 17 C 9.8018092 17 10 16.801809 10 16.554688 L 10 16.445312 C 10 16.198191 9.8018092 16 9.5546875 16 L 6.4453125 16 z M 22.445312 16 C 22.198191 16 22 16.198191 22 16.445312 L 22 16.554688 C 22 16.801809 22.198191 17 22.445312 17 L 25.554688 17 C 25.801809 17 26 16.801809 26 16.554688 L 26 16.445312 C 26 16.198191 25.801809 16 25.554688 16 L 22.445312 16 z M 6.4101562 19 C 6.1829531 19 6 19.182953 6 19.410156 L 6 19.589844 C 6 19.817047 6.1829531 20 6.4101562 20 L 9.5898438 20 C 9.8170469 20 10 19.817047 10 19.589844 L 10 19.410156 C 10 19.182953 9.8170469 19 9.5898438 19 L 6.4101562 19 z M 22.410156 19 C 22.182953 19 22 19.182953 22 19.410156 L 22 19.589844 C 22 19.817047 22.182953 20 22.410156 20 L 25.589844 20 C 25.817047 20 26 19.817047 26 19.589844 L 26 19.410156 C 26 19.182953 25.817047 19 25.589844 19 L 22.410156 19 z M 6.296875 22 C 6.1325531 22 6 22.132553 6 22.296875 L 6 22.703125 C 6 22.867447 6.1325531 23 6.296875 23 L 25.703125 23 C 25.867447 23 26 22.867447 26 22.703125 L 26 22.296875 C 26 22.132553 25.867447 22 25.703125 22 L 6.296875 22 z M 6.4453125 25 C 6.1981908 25 6 25.198191 6 25.445312 L 6 25.554688 C 6 25.801809 6.1981908 26 6.4453125 26 L 25.554688 26 C 25.801809 26 26 25.801809 26 25.554688 L 26 25.445312 C 26 25.198191 25.801809 25 25.554688 25 L 6.4453125 25 z "
     style="fill:#808080" />
</svg>
